public/svgs/vision/vision-decoration-logo-6.svg

<svg width="1em" height="1em" viewBox="0 0 48 48" fill="current" xmlns="http://www.w3.org/2000/svg">
    <g id="Group">
        <path id="Union" fill-rule="evenodd" clip-rule="evenodd" d="M42.1758 17.1101C42.317 17.8279 42.2074 18.5107 41.9013 19.1679C41.5992 19.8157 40.7738 20.3954 40.211 20.3491C40.8774 19.9803 41.1845 19.3864 41.3405 18.7329C41.5597 17.8184 41.5755 16.8982 41.4718 15.9506C41.2447 13.8758 40.521 11.9938 39.3609 10.249C39.2379 10.0642 39.104 9.8864 38.97 9.70871L38.97 9.70865C38.934 9.6609 38.898 9.61316 38.8623 9.56528C38.8241 9.51383 38.7862 9.46209 38.7482 9.41031C38.6196 9.23466 38.4907 9.0587 38.3489 8.89289C38.2288 8.75196 38.0972 8.62038 37.9654 8.48868C37.9053 8.42862 37.8451 8.36853 37.7861 8.30751C37.7693 8.3212 37.7525 8.33467 37.7358 8.34813L37.7357 8.34817C37.7189 8.36165 37.7022 8.37512 37.6854 8.38883C38.4051 9.48395 38.8899 10.6661 39.1446 11.9305C39.4102 13.2497 39.2029 14.5066 38.5414 15.6934C38.7438 14.4886 37.8187 11.7678 36.5124 9.96437C35.1242 8.04838 32.6144 6.18157 31.7001 6C31.7215 6.022 31.7409 6.0442 31.7596 6.06561L31.7597 6.06562C31.7989 6.11046 31.8351 6.15183 31.8798 6.18063C33.2572 7.06486 34.1695 8.33398 34.9159 9.70052C35.7127 11.1597 36.157 12.7277 36.3406 14.3827C36.4927 15.753 36.4117 17.1016 36.1896 18.4378C35.8825 20.2838 35.2585 22.0523 34.4084 23.7385C33.6857 25.1712 32.8356 26.5283 31.6458 27.6603C31.3218 27.968 30.9871 28.2652 30.6735 28.5437L30.6735 28.5437C30.538 28.664 30.4064 28.7808 30.2813 28.8935C31.1186 30.8511 30.1875 32.3415 29.0491 33.795C30.3208 33.1037 31.2479 32.1136 31.9608 30.9343C32.6164 29.8496 33.4339 29.4165 34.4765 29.6661C34.6197 29.7004 34.7569 29.7585 34.9254 29.8299C35.0125 29.8668 35.108 29.9073 35.217 29.9498C34.6315 29.058 33.9335 28.5039 32.9698 28.2703C34.1102 28.2343 35.0028 28.6334 35.6682 29.5384C36.4808 30.644 36.469 31.8734 36.1886 33.0801C35.6011 35.6061 34.0895 37.5967 32.0181 39.2186C31.8191 39.374 31.6161 39.525 31.4131 39.6761L31.4127 39.6764L31.4122 39.6768C31.3152 39.749 31.2182 39.8212 31.1216 39.8938C35.138 38.429 39.5811 34.6622 41.6999 28.9966C43.3507 24.5868 43.3379 19.1991 42.1758 17.1101ZM17.5764 29.1782C17.3679 28.9386 17.1643 28.7063 16.9646 28.4784C16.5598 28.0164 16.1708 27.5725 15.7893 27.1222C14.6183 25.7406 13.7386 24.2 13.0316 22.5564C12.221 20.6697 11.7323 18.7112 11.5773 16.6865C11.4845 15.4741 11.5803 14.2598 11.8478 13.0569C12.4225 10.4713 13.5836 8.2149 15.7063 6.46724C15.8349 6.36164 15.9657 6.25869 16.0966 6.15568L16.0967 6.15565L16.0967 6.1556C16.1569 6.10827 16.217 6.06093 16.277 6.01331C14.2984 6.94009 12.6821 8.27542 11.4539 10.0079C10.2414 11.7187 9.44761 13.5846 9.41503 15.7256C8.05349 13.0862 8.93815 10.7106 10.2681 8.38134C10.2513 8.36338 10.2348 8.34541 10.2182 8.32745C10.2017 8.30947 10.1852 8.2915 10.1684 8.27353C10.0469 8.422 9.92548 8.57048 9.80305 8.71801C9.74958 8.7828 9.69545 8.84712 9.64133 8.91142L9.64131 8.91144L9.64131 8.91145L9.6413 8.91145L9.6413 8.91145C9.56352 9.00386 9.48578 9.09623 9.41009 9.18991C7.43542 11.6327 6.35132 14.3809 6.44808 17.4884C6.48165 18.5769 6.68011 19.6711 7.72471 20.387C6.00674 19.8867 5.6355 18.6308 5.70462 17.1007C4.2088 22.6236 5.13097 27.8145 8.12458 32.6603C10.1753 35.9816 13.1096 38.4205 16.8349 39.945C16.7993 39.8457 16.745 39.7615 16.668 39.7114C14.7348 38.4536 13.2923 36.7986 12.3553 34.754C11.7669 33.4688 11.447 32.1278 11.7619 30.7178C12.0848 29.2728 13.4651 28.0765 15.0873 28.2978C14.0328 28.4982 13.3486 29.0647 12.8559 29.8118C13.0095 29.7901 13.162 29.7612 13.3132 29.7326H13.3132H13.3132H13.3132C13.6489 29.6691 13.9787 29.6066 14.3033 29.6255C15.0656 29.669 15.5069 30.2222 15.9255 30.7698C16.0442 30.9253 16.1614 31.082 16.2786 31.2387L16.2787 31.2388C16.66 31.7485 17.0415 32.2585 17.4727 32.7265C17.7476 33.0251 18.081 33.2736 18.4145 33.5222C18.5637 33.6334 18.7129 33.7446 18.8569 33.8604L18.8919 33.8261C18.9152 33.8034 18.9386 33.7805 18.9616 33.7573C17.7748 32.3236 16.8487 30.8303 17.5764 29.1782ZM28.6396 32.0568C28.1509 32.7594 27.6364 33.4309 26.8634 33.8905C26.7281 33.9709 26.6402 34.1242 26.552 34.2778L26.552 34.2778L26.552 34.2778C26.5127 34.3462 26.4734 34.4147 26.4299 34.4768C26.4704 34.5128 26.5109 34.5477 26.5514 34.5827C26.8339 34.3215 27.1165 34.0604 27.4024 33.7963L27.4123 33.7871C27.6997 33.5217 27.9904 33.2531 28.2881 32.9779C28.2469 33.1013 28.2103 33.2245 28.174 33.3466L28.174 33.3467C28.024 33.8516 27.8796 34.3375 27.4439 34.7388C26.5148 35.5937 25.7556 36.5763 25.5551 37.8445C25.5259 38.0289 25.5445 38.2205 25.563 38.4122C25.5714 38.4986 25.5798 38.5851 25.5838 38.671C25.6331 38.6776 25.6815 38.6833 25.7309 38.689C25.8524 38.5055 25.9736 38.3221 26.0964 38.1363L26.0996 38.1315C26.2183 37.952 26.3384 37.7704 26.4615 37.5844C26.6234 38.1244 26.3213 39.0096 25.8138 39.5883L25.8136 39.5885C25.326 40.1445 24.8383 40.7005 24.3753 41.2745C24.2728 41.4016 24.204 41.553 24.1257 41.7251C24.0864 41.8116 24.0447 41.9034 23.9952 41.9999C23.9516 41.9155 23.9142 41.8332 23.8784 41.7542C23.8061 41.5951 23.74 41.4495 23.6417 41.3275C23.1688 40.7402 22.6761 40.168 22.1794 39.5997C21.6769 39.0237 21.4488 38.3674 21.5308 37.5967L21.8911 38.1461L22.2515 38.6956C22.2742 38.6942 22.2969 38.6925 22.3196 38.6909C22.3424 38.6892 22.3651 38.6875 22.3878 38.6861C22.3934 38.598 22.4045 38.5092 22.4155 38.4204C22.4392 38.2302 22.4628 38.0402 22.4332 37.8577C22.2347 36.6273 21.5278 35.6457 20.6175 34.8182C20.0862 34.3357 19.9178 33.7465 19.7385 33.1194C19.7246 33.0706 19.7106 33.0215 19.6963 32.9722C19.9507 33.2106 20.2011 33.445 20.4492 33.6771L20.4503 33.6782L20.4508 33.6786L20.4533 33.6811L20.4558 33.6834C20.7811 33.9878 21.1023 34.2884 21.4231 34.5894C21.4394 34.5764 21.4555 34.5635 21.4716 34.5505L21.4937 34.5326C21.5172 34.5137 21.5406 34.4948 21.5643 34.4759C21.5053 34.4063 21.45 34.3319 21.3948 34.2574C21.2774 34.0992 21.1599 33.9409 21.0055 33.829C19.8256 32.9703 19.0259 31.8903 18.7672 30.4737C18.756 30.4132 18.7589 30.3501 18.762 30.2806V30.2806V30.2806C18.7636 30.2458 18.7652 30.2095 18.7652 30.1711C18.9789 30.385 19.1843 30.5913 19.3869 30.795L19.3888 30.7968L19.7101 31.1196C19.3851 28.5844 17.7414 26.866 16.0991 25.1492C15.7657 24.8006 15.4324 24.4521 15.1101 24.0968L15.193 24.0146C15.666 24.408 16.1399 24.8014 16.6138 25.1938C16.7558 25.3114 16.8973 25.4296 17.0387 25.5479L17.0388 25.548L17.0389 25.5481C17.3742 25.8285 17.7096 26.1091 18.0534 26.3798C18.4251 26.672 18.8054 26.954 19.1079 27.1784L19.1082 27.1786C19.2177 27.2598 19.317 27.3335 19.4021 27.3973C18.7712 24.0912 19.8316 20.8597 21.9346 17.8779C20.8485 20.7623 20.265 23.6855 21.0795 26.7306C20.9048 25.1002 21.4537 23.7006 22.4974 22.4173C21.6769 25.313 22.1577 27.9714 24.0011 30.347C25.7872 27.9808 26.3322 25.33 25.4742 22.4163C26.5524 23.6977 27.0687 25.1191 26.9038 26.7495C27.7204 23.6949 27.1359 20.7727 26.0281 17.8874C27.1852 19.2539 27.8468 20.8559 28.3197 22.5326C28.8015 24.2415 28.9111 25.9769 28.4865 27.6981C29.9281 26.4422 31.3439 25.209 32.7597 23.9758L32.8723 24.0751C32.7683 24.189 32.6645 24.3032 32.5607 24.4173L32.5606 24.4174C32.2999 24.7041 32.0392 24.9909 31.7744 25.2742C31.6103 25.45 31.4439 25.6241 31.2775 25.7982L31.2775 25.7982L31.2775 25.7982C30.3489 26.7702 29.4203 27.7421 28.8844 28.9908C28.6872 29.4508 28.5113 29.9193 28.3353 30.388C28.2577 30.5949 28.18 30.8018 28.1005 31.008C28.1296 31.0255 28.1588 31.0428 28.1879 31.06C28.217 31.0773 28.2461 31.0945 28.2753 31.112L28.6796 30.7076L28.6818 30.7054C28.8409 30.5462 28.9976 30.3894 29.149 30.2382C29.2596 30.5711 29.0069 31.5291 28.6396 32.0568ZM15.2967 18.5929C15.5593 20.2015 16.0273 21.7203 16.9969 23.066C17.4876 23.746 18.0109 24.4137 18.7682 24.8402C18.7995 24.6746 18.8309 24.5106 18.862 24.3477C18.9635 23.8173 19.0626 23.2987 19.1503 22.7786C19.168 22.6707 19.1216 22.5289 19.0535 22.4372C17.3859 20.1902 16.3867 17.738 16.7135 14.9387C16.8211 14.0176 17.0759 13.087 17.4313 12.2246C18.0523 10.7152 19.0881 9.46217 20.3973 8.40393C20.1248 8.48716 19.8769 8.60537 19.641 8.7425C18.0681 9.65604 16.9051 10.9516 16.1409 12.5206C15.2049 14.4394 14.9511 16.4764 15.2967 18.5929ZM28.9592 22.4042C30.2171 20.8031 30.9872 18.9931 31.2726 17.0269C31.6547 14.3932 30.8747 12.0337 29.1271 9.97865C28.8072 9.60258 28.4551 9.25115 28.0788 8.87545C27.9034 8.70034 27.7227 8.51996 27.5375 8.32935C27.6627 8.39231 27.7819 8.44772 27.8953 8.50047C28.1228 8.6062 28.3272 8.70124 28.511 8.8249C30.1381 9.92002 31.3496 11.3234 32.098 13.1118C32.5956 14.2996 32.8533 15.5365 32.8424 16.7782C32.8217 19.1633 32.2747 21.4471 30.7463 23.4076C30.4563 23.7794 30.1072 24.1087 29.7454 24.4498C29.5763 24.6093 29.4045 24.7713 29.2347 24.9415C29.1953 24.7334 29.1569 24.5338 29.1197 24.3405C29.0133 23.7879 28.9168 23.2862 28.8348 22.7825C28.8151 22.6633 28.8793 22.5054 28.9592 22.4042Z" fill="current"/>
    </g>
</svg>

<svg xmlns="http://www.w3.org/2000/svg" width="1em" height="1em" fill="current" viewBox="0 0 48 48"><path fill-rule="evenodd" d="M42.176 17.11c.141.718.031 1.4-.275 2.058-.302.648-1.127 1.227-1.69 1.181.666-.369.974-.963 1.13-1.616.219-.915.234-1.835.13-2.782-.226-2.075-.95-3.957-2.11-5.702a11 11 0 0 0-.391-.54l-.108-.144-.114-.155a9 9 0 0 0-.4-.517 7 7 0 0 0-.383-.404l-.179-.181-.05.04-.05.04a10 10 0 0 1 1.459 3.543c.265 1.319.058 2.576-.604 3.762.203-1.204-.722-3.925-2.029-5.729C35.124 8.048 32.614 6.182 31.7 6l.06.066c.039.044.075.086.12.115 1.377.884 2.29 2.153 3.036 3.52.797 1.459 1.241 3.027 1.425 4.682.152 1.37.07 2.719-.151 4.055-.307 1.846-.931 3.614-1.782 5.3-.722 1.433-1.572 2.79-2.762 3.922-.324.308-.659.605-.973.884q-.204.18-.392.35c.838 1.957-.093 3.448-1.232 4.901 1.272-.691 2.199-1.681 2.912-2.86.655-1.085 1.473-1.518 2.516-1.269.143.034.28.093.448.164q.13.055.292.12c-.585-.892-1.283-1.446-2.247-1.68 1.14-.036 2.033.363 2.698 1.268.813 1.106.801 2.335.52 3.542-.587 2.526-2.099 4.517-4.17 6.139q-.3.231-.605.457l-.291.218c4.016-1.465 8.46-5.232 10.578-10.897 1.65-4.41 1.638-9.798.476-11.887m-24.6 12.068q-.312-.359-.611-.7c-.405-.462-.794-.905-1.176-1.356-1.17-1.381-2.05-2.922-2.757-4.566a18.3 18.3 0 0 1-1.455-5.87 12.3 12.3 0 0 1 .27-3.63c.575-2.585 1.737-4.841 3.86-6.589q.193-.157.39-.311l.18-.143c-1.979.927-3.595 2.262-4.823 3.995-1.213 1.71-2.006 3.577-2.039 5.718-1.362-2.64-.477-5.015.853-7.345l-.05-.054-.05-.053-.365.444q-.08.098-.162.193l-.23.279c-1.976 2.443-3.06 5.19-2.963 8.298.034 1.089.232 2.183 1.277 2.899-1.718-.5-2.09-1.756-2.02-3.286-1.496 5.523-.574 10.714 2.42 15.56 2.05 3.32 4.985 5.76 8.71 7.284a.45.45 0 0 0-.167-.234c-1.933-1.257-3.376-2.912-4.313-4.957-.588-1.285-.908-2.626-.593-4.036.323-1.445 1.703-2.642 3.325-2.42-1.054.2-1.738.767-2.231 1.514q.23-.034.457-.08c.336-.063.666-.125.99-.107.763.044 1.204.597 1.622 1.145q.178.233.354.469c.381.51.762 1.02 1.194 1.488.275.298.608.547.942.795q.225.166.442.338l.035-.034.07-.069c-1.187-1.433-2.113-2.927-1.386-4.579m11.064 2.879c-.49.702-1.004 1.374-1.777 1.834-.135.08-.223.233-.311.387-.04.068-.079.137-.122.199l.121.106.851-.787.01-.009.876-.81q-.06.187-.114.37c-.15.505-.294.99-.73 1.392-.93.855-1.688 1.837-1.889 3.105-.03.185-.01.377.008.568q.014.13.02.259l.148.018.365-.553.004-.005.361-.547c.162.54-.14 1.426-.647 2.004-.488.556-.976 1.112-1.439 1.687-.102.127-.171.278-.25.45q-.057.13-.13.275a5 5 0 0 1-.117-.246c-.072-.159-.138-.304-.236-.426a56 56 0 0 0-1.463-1.728c-.502-.576-.73-1.233-.648-2.003l.36.55.36.549.069-.005.068-.005q.009-.132.027-.266c.024-.19.048-.38.018-.562-.198-1.23-.905-2.212-1.815-3.04-.532-.482-.7-1.072-.88-1.699l-.042-.147.753.705.001.001.003.003.003.002.967.906.049-.038.022-.018.07-.057a4 4 0 0 1-.17-.219c-.117-.158-.234-.316-.388-.428-1.18-.859-1.98-1.939-2.239-3.355-.011-.06-.008-.124-.005-.193q.003-.053.003-.11l.622.624.002.002.321.323c-.325-2.536-1.969-4.254-3.61-5.97a55 55 0 0 1-.99-1.053l.083-.082 1.846 1.533c.335.28.67.561 1.014.832.372.292.752.574 1.055.798q.166.123.294.22c-.63-3.307.43-6.538 2.533-9.52-1.086 2.884-1.67 5.808-.855 8.853-.175-1.63.374-3.03 1.417-4.314-.82 2.896-.34 5.554 1.504 7.93 1.786-2.366 2.331-5.017 1.473-7.93 1.078 1.28 1.595 2.702 1.43 4.333.816-3.055.232-5.977-.876-8.863 1.157 1.367 1.819 2.969 2.292 4.646.482 1.708.591 3.444.166 5.165l4.274-3.722.112.1-.311.341q-.39.432-.787.857-.246.264-.497.524c-.928.972-1.857 1.944-2.393 3.193-.197.46-.373.928-.549 1.397l-.235.62.088.052.087.052.405-.404.002-.003.467-.467c.11.333-.142 1.291-.51 1.819M15.297 18.593c.262 1.608.73 3.127 1.7 4.473.49.68 1.014 1.348 1.771 1.774l.094-.492c.102-.53.2-1.05.288-1.57a.5.5 0 0 0-.096-.34c-1.668-2.248-2.667-4.7-2.34-7.5.107-.92.362-1.851.717-2.713.621-1.51 1.657-2.763 2.966-3.821a3.6 3.6 0 0 0-.756.338 8.7 8.7 0 0 0-3.5 3.779c-.936 1.918-1.19 3.955-.844 6.072m13.662 3.811a11.2 11.2 0 0 0 2.314-5.377c.382-2.634-.398-4.993-2.146-7.048-.32-.376-.672-.728-1.048-1.104q-.264-.261-.541-.546.188.094.357.171c.228.106.432.201.616.325 1.627 1.095 2.839 2.498 3.587 4.287a9.3 9.3 0 0 1 .744 3.666c-.02 2.385-.567 4.67-2.096 6.63-.29.371-.639.7-1 1.042-.17.16-.341.321-.511.492l-.115-.602a55 55 0 0 1-.285-1.558c-.02-.119.044-.277.124-.378" clip-rule="evenodd"/></svg>
